X:1
T:261 - Alma Ansiosa
T:Letra: Theodoro Rodrigues Teixeira (1871-1950)
T:MÃºsica: Adapt.de KATHOLISCHES GESANGBUCH (c. 1774)
L:1/4
Q:1/4=140
M:3/4
K:Ebmaj
V:1
"Eb"E E E | (E D) E | "Bb7"(F G) F | "Eb"E3 | G G G | (G F) G | (B A) G | "Bb"F2z | F F "C7"G | "Fm"A2 "Bb"F | "Eb"G2 "Ab"A | "Bb"B3 | "Ab"c c c | "Eb"B2 "Cm"G | ("Ab"A G) "Bb7"F | "Eb"E2z |]
w:1.~SÃ³ ve-jo tre_vas e_ fu-ror, Da tem-pes-ta_deo fu_ra-Ã§Ã£o; SÃ³ ve-jo, cheio de pa-vor, Pe-ri-go, mor-te, as-so_la-Ã§Ã£o.
w:2.~A-fli-to,es-tou_ a pro_cu-rar, Pa-ra mi-nhaal_maum Sal_va-dor; Cor-ri-do te-nho ter-rae mar, Ne-nhum a-chei eu de_ va-lor.
w:3.~Meus o-lhos e_le-vei_ ao cÃ©u, Cla-mei aos an_jos com_ ar-dor; Da lei eu, um mal-di-to rÃ©u, Pe-di per-dÃ£o prao pe_ca-dor.
w:4.~Res-pos-taem co_ro pu_deou-vir: 'Per-dÃ£o pra ti_ a-qui_ nÃ£o hÃ¡; SÃ³ Cris-to po-de te re-mir, E sal-va-Ã§Ã£o sÃ³ e_le dÃ¡.'
w:5.~Ao pÃ© da cruz_ es-tou,_ Se-nhor! Con-tri-to, ro_goa ti_ per-dÃ£o; E, por teu san-gue re-mi-dor, Eu pe-Ã§o mi-nha sal_va-Ã§Ã£o.
W:
W:
W:1. SÃ³ vejo trevas e furor,
W:Da tempestade o furaÃ§Ã£o;
W:SÃ³ vejo, cheio de pavor,
W:Perigo, morte, assolaÃ§Ã£o.
W:
W:2. Aflito, estou a procurar,
W:Para minha alma um Salvador;
W:Corrido tenho terra e mar,
W:Nenhum achei eu de valor.
W:
W:3. Meus olhos elevei ao cÃ©u,
W:Clamei aos anjos com ardor;
W:Da lei eu, um maldito rÃ©u,
W:Pedi perdÃ£o pra o pecador.
W:
W:
W:
W:4. Resposta em coro pude ouvir:
W:'PerdÃ£o pra ti aqui nÃ£o hÃ¡;
W:SÃ³ Cristo pode te remir,
W:E salvaÃ§Ã£o sÃ³ ele dÃ¡.'
W:
W:5. Ao pÃ© da cruz estou, Senhor!
W:Contrito, rogo a ti perdÃ£o;
W:E, por teu sangue remidor,
W:Eu peÃ§o minha salvaÃ§Ã£o.
W:
W:

